packages/foundations/assets/icons/functional/images/file/cloud_upload_32.svg

<svg width="32" height="32" viewBox="0 0 32 32" fill="none" xmlns="http://www.w3.org/2000/svg">
<g clip-path="url(#clip0_185_889)">
<path fill-rule="evenodd" clip-rule="evenodd" d="M16 14.5C16.25 14.5 16.508 14.5857 16.7111 14.7889L20.7109 18.7891C20.914 18.9922 21 19.25 21 19.5002C21 19.9375 20.6875 20.5 20 20.5C19.75 20.5 19.4681 20.4069 19.2824 20.2188L17 17.9062V26.5C17 27.0624 16.5625 27.5 16 27.5C15.4375 27.5 15 27.0624 15 26.5V17.9062L12.7105 20.2106C12.5082 20.4144 12.25 20.5 12 20.5C11.4062 20.5 11 20.0312 11 19.5C11 19.25 11.0861 18.9924 11.2888 18.7889L15.2816 14.7812C15.4688 14.5938 15.75 14.5 16 14.5ZM19.5 4.5C23.64 4.5 27 7.85786 27 12L26.9922 12.647C28.6755 13.7478 29.8102 15.5306 29.9782 17.4861L29.9946 17.7421L30 18C30 21.4413 27.1299 24.2421 23.4911 24.4836L23.2474 24.4959L21.9995 24.4959C21.4869 24.496 21.0645 24.1102 21.0067 23.6131L21 23.4965C21 22.9445 21.4475 22.4969 21.9995 22.4968L23.1956 22.4966C25.8139 22.4061 27.879 20.5131 27.9949 18.2047L28 18C28 16.3631 27.0163 14.8686 25.4421 14.0733C25.0462 13.8733 24.8294 13.4365 24.9094 13.0002C24.9695 12.6729 25 12.3387 25 12C25 8.96243 22.5376 6.5 19.5 6.5C17.435 6.5 15.5739 7.64743 14.6284 9.44289C14.3827 9.90956 13.8167 10.1051 13.3353 9.88976C12.7634 9.63395 12.1421 9.5 11.5 9.5C9.25701 9.5 7.36494 11.1516 7.04736 13.3487C7.00118 13.6682 6.80357 13.9458 6.51676 14.094C4.96541 14.8957 4 16.3782 4 18C4 20.3964 6.09846 22.3867 8.76967 22.4955L9 22.5001L10.0005 22.4996C10.5128 22.4993 10.9352 22.8847 10.9932 23.3814L11 23.4985C11 24.0507 10.5527 24.4984 10.0005 24.499L9 24.5C5.23436 24.5 2.13446 21.7319 2.00426 18.2294L2 18C2 15.8623 3.11799 13.9164 4.92072 12.7162L5.14031 12.5758L5.20889 12.3617C5.89862 9.70011 8.21877 7.73313 10.9963 7.51932L11.2579 7.50445L11.5 7.5C11.9933 7.5 12.4794 7.55516 12.9511 7.6628L13.3022 7.75333L13.4384 7.58119C14.7752 5.74878 17.1674 4.5 19.5 4.5Z" fill="#1A1C1F"/>
</g>
<defs>
<clipPath id="clip0_185_889">
<rect width="32" height="32" fill="white"/>
</clipPath>
</defs>
</svg>

<svg xmlns="http://www.w3.org/2000/svg" width="32" height="32" fill="none"><g clip-path="url(#a)"><path fill="#1A1C1F" fill-rule="evenodd" d="M16 14.5c.25 0 .508.086.711.289l4 4c.203.203.289.461.289.711 0 .438-.312 1-1 1-.25 0-.532-.093-.718-.281L17 17.906V26.5c0 .562-.437 1-1 1s-1-.438-1-1v-8.594l-2.29 2.305a.99.99 0 0 1-.71.289c-.594 0-1-.469-1-1 0-.25.086-.508.289-.711l3.993-4.008c.187-.187.468-.281.718-.281m3.5-10c4.14 0 7.5 3.358 7.5 7.5l-.008.647c1.683 1.1 2.818 2.884 2.986 4.84l.017.255L30 18c0 3.441-2.87 6.242-6.509 6.484l-.244.012H22a1 1 0 0 1-.993-.883L21 23.497a1 1 0 0 1 1-1h1.196c2.618-.09 4.683-1.984 4.799-4.292L28 18c0-1.637-.984-3.131-2.558-3.927A1 1 0 0 1 24.91 13q.09-.491.091-1a5.5 5.5 0 0 0-10.372-2.557 1 1 0 0 1-1.293.447 4.5 4.5 0 0 0-6.288 3.459 1 1 0 0 1-.53.745C4.965 14.896 4 16.378 4 18c0 2.396 2.098 4.387 4.77 4.496L9 22.5h1a1 1 0 0 1 .993.881l.007.117a1 1 0 0 1-1 1.001L9 24.5c-3.766 0-6.866-2.768-6.996-6.27L2 18c0-2.138 1.118-4.084 2.92-5.284l.22-.14.069-.214a6.5 6.5 0 0 1 5.787-4.843l.262-.015.242-.004c.493 0 .98.055 1.451.163l.351.09.136-.172C14.775 5.75 17.168 4.5 19.5 4.5" clip-rule="evenodd"/></g><defs><clipPath id="a"><path fill="#fff" d="M0 0h32v32H0z"/></clipPath></defs></svg>
